static/dist/images/icons/colours.svg

<svg xmlns="http://www.w3.org/2000/svg" viewBox="0 0 20 20"><path d="M3.179 5.998a1.005 1.005 0 0 0-1.408.132L.494 7.669a1.004 1.004 0 0 0 .131 1.407l7.888 6.542-3.807-8.354-1.527-1.266zm3.834-3.315l-1.82.829a1.005 1.005 0 0 0-.495 1.324l4.25 9.325.213-9.179-.822-1.804c-.23-.5-.826-.723-1.326-.495zm7.198.204a1.003 1.003 0 0 0-.976-1.023l-2-.046a1.003 1.003 0 0 0-1.022.976l-.239 10.243 4.19-8.167.047-1.983zm4.98.95l-1.779-.913a1.005 1.005 0 0 0-1.347.434L9.674 15.814a1.004 1.004 0 0 0 .434 1.347l1.779.913a1.003 1.003 0 0 0 1.346-.433l6.391-12.456a1.005 1.005 0 0 0-.433-1.348zm-6.392 12.456a1 1 0 1 1-1.78-.911 1 1 0 0 1 1.78.911z"/></svg>

<?xml version="1.0" encoding="utf-8"?>
<!-- Generator: Adobe Illustrator 18.1.0, SVG Export Plug-In . SVG Version: 6.00 Build 0)  -->
<!DOCTYPE svg PUBLIC "-//W3C//DTD SVG 1.1//EN" "http://www.w3.org/Graphics/SVG/1.1/DTD/svg11.dtd">
<svg version="1.1" id="Colours" xmlns="http://www.w3.org/2000/svg" xmlns:xlink="http://www.w3.org/1999/xlink" x="0px" y="0px"
	 viewBox="0 0 20 20" enable-background="new 0 0 20 20" xml:space="preserve">
<path d="M3.179,5.998C2.756,5.648,2.122,5.708,1.771,6.13L0.494,7.669c-0.35,0.423-0.291,1.058,0.131,1.407l7.888,6.542L4.706,7.264
	L3.179,5.998z M7.013,2.683l-1.82,0.829C4.694,3.74,4.471,4.337,4.698,4.836l4.25,9.325l0.213-9.179L8.339,3.178
	C8.109,2.678,7.513,2.455,7.013,2.683z M14.211,2.887c0.013-0.55-0.427-1.01-0.976-1.023l-2-0.046
	c-0.549-0.013-1.009,0.427-1.022,0.976L9.974,13.037l4.19-8.167L14.211,2.887z M19.191,3.837l-1.779-0.913
	c-0.489-0.25-1.096-0.055-1.347,0.434L9.674,15.814c-0.251,0.489-0.056,1.096,0.434,1.347l1.779,0.913
	c0.489,0.251,1.095,0.056,1.346-0.433l6.391-12.456C19.875,4.694,19.68,4.088,19.191,3.837z M12.799,16.293
	c-0.252,0.492-0.855,0.686-1.346,0.434c-0.492-0.252-0.685-0.854-0.433-1.346c0.252-0.492,0.854-0.685,1.346-0.433
	C12.858,15.199,13.051,15.802,12.799,16.293z"/>
</svg>
